X: 31475
T: Paddy The Bat, Mind Where You're At
R: polka
M: 2/4
K: Gmajor
|:Bc/B/ GA|Bd G2|AB/A/ GA|Bc d2|
Bc/B/ GA|Bd G2|AG/A/ BA|1 G2 GA:|2 G2 Gd||
|:gg ee|dd B2|AB/A/ GA|Bc d2|
gg ee|dd B2|AG/A/ BA|1 G2 Gd:|2 G2 GA||

